X: 03086
T: TAYLOR'S HORNPIPE
C: Bob McQuillen 24 May 77
B: Bob's Note Book 03 #86
%R: hornpipe, reel
%D:1977
Z: 2020 John Chambers <jc:trillian.mit.edu>
M: C
L: 1/8
K: Em
B,2 \
| E2FG F2A2 | GABG A2c2 | B2e2 dBGB | ABAG F2D2 |
| E2FG F2A2 | GABG A2c2 | Bedc BAGF | G2E2 E2  :|
|: B2 \
| e2de dBAB | dBAG F2D2 | edef gbag | fgag f2d2 |
| e2de dBAB | dBAG FDDF | EFGA BeBA | G2E2 E2  :|
%%begintext align
%% For Taylor Whiteside,
%% with fondest best wishes
%%endtext

%%sep 1 1 500

%%sep 1 1 500

